polaris-icons/icons/new-icons/DnsSettingsMajor.svg

<svg width="20" height="20" viewBox="0 0 20 20" fill="none" xmlns="http://www.w3.org/2000/svg">
<path d="M7.99999 6.5C7.99999 7.05228 7.55227 7.5 6.99999 7.5C6.4477 7.5 5.99999 7.05228 5.99999 6.5C5.99999 5.94772 6.4477 5.5 6.99999 5.5C7.55227 5.5 7.99999 5.94772 7.99999 6.5Z" fill="#4A4A4A"/>
<path fill-rule="evenodd" clip-rule="evenodd" d="M3.49999 5.25C3.49999 4.2835 4.28349 3.5 5.24999 3.5H14.75C15.7165 3.5 16.5 4.2835 16.5 5.25V7.75C16.5 8.7165 15.7165 9.5 14.75 9.5H5.24999C4.28349 9.5 3.49999 8.7165 3.49999 7.75V5.25ZM5.24999 5C5.11192 5 4.99999 5.11193 4.99999 5.25V7.75C4.99999 7.88807 5.11192 8 5.24999 8H14.75C14.8881 8 15 7.88807 15 7.75V5.25C15 5.11193 14.8881 5 14.75 5H5.24999Z" fill="#4A4A4A"/>
<path d="M5.24999 12C5.11192 12 4.99999 12.1119 4.99999 12.25V14.75C4.99999 14.8881 5.11192 15 5.24999 15H10.25C10.6642 15 11 15.3358 11 15.75C11 16.1642 10.6642 16.5 10.25 16.5H5.24999C4.28349 16.5 3.49999 15.7165 3.49999 14.75V12.25C3.49999 11.2835 4.28349 10.5 5.24999 10.5H12C12.4142 10.5 12.75 10.8358 12.75 11.25C12.75 11.6642 12.4142 12 12 12H5.24999Z" fill="#4A4A4A"/>
<path d="M6.99999 14.5C7.55227 14.5 7.99999 14.0523 7.99999 13.5C7.99999 12.9477 7.55227 12.5 6.99999 12.5C6.4477 12.5 5.99999 12.9477 5.99999 13.5C5.99999 14.0523 6.4477 14.5 6.99999 14.5Z" fill="#4A4A4A"/>
<path fill-rule="evenodd" clip-rule="evenodd" d="M16.8775 13.8387C16.9022 13.9721 16.915 14.1095 16.915 14.25C16.915 14.3905 16.9022 14.5279 16.8775 14.6613L17.2051 14.8504C17.5638 15.0575 17.6867 15.5162 17.4796 15.8749C17.2725 16.2336 16.8138 16.3565 16.4551 16.1494L16.1272 15.9601C15.9193 16.1382 15.6784 16.2789 15.415 16.372V16.75C15.415 17.1642 15.0792 17.5 14.665 17.5C14.2508 17.5 13.915 17.1642 13.915 16.75V16.372C13.6517 16.2789 13.4109 16.1382 13.203 15.9603L12.875 16.1496C12.5163 16.3567 12.0576 16.2338 11.8505 15.8751C11.6434 15.5164 11.7663 15.0577 12.125 14.8506L12.4526 14.6615C12.4279 14.5281 12.415 14.3905 12.415 14.25C12.415 14.1095 12.4279 13.9719 12.4526 13.8385L12.125 13.6494C11.7663 13.4423 11.6434 12.9836 11.8505 12.6249C12.0576 12.2662 12.5163 12.1433 12.875 12.3504L13.203 12.5397C13.4109 12.3618 13.6517 12.2211 13.915 12.128V11.75C13.915 11.3358 14.2508 11 14.665 11C15.0792 11 15.415 11.3358 15.415 11.75V12.128C15.6784 12.2211 15.9193 12.3618 16.1272 12.5399L16.4551 12.3506C16.8138 12.1435 17.2725 12.2664 17.4796 12.6251C17.6867 12.9838 17.5638 13.4425 17.2051 13.6496L16.8775 13.8387ZM13.915 14.25C13.915 14.1167 13.9498 13.9916 14.0107 13.8831L14.0156 13.8749L14.0199 13.8673C14.1506 13.6474 14.3906 13.5 14.665 13.5C14.9384 13.5 15.1776 13.6463 15.3087 13.8648C15.3106 13.8683 15.3126 13.8717 15.3145 13.8751C15.3166 13.8787 15.3187 13.8822 15.3208 13.8857C15.3808 13.9936 15.415 14.1178 15.415 14.25C15.415 14.3822 15.3808 14.5064 15.3208 14.6143L15.3145 14.6249L15.3087 14.6352C15.1776 14.8537 14.9384 15 14.665 15C14.3906 15 14.1506 14.8526 14.0199 14.6327L14.0156 14.6251L14.0107 14.6169C13.9498 14.5084 13.915 14.3833 13.915 14.25Z" fill="#4A4A4A"/>
</svg>

<svg viewBox="0 0 20 20" xmlns="http://www.w3.org/2000/svg"><path d="M8 6.5a1 1 0 1 1-2 0 1 1 0 0 1 2 0Z" fill="#5C5F62"/><path fill-rule="evenodd" d="M3.5 5.25c0-.966.783-1.75 1.75-1.75h9.5c.966 0 1.75.784 1.75 1.75v2.5a1.75 1.75 0 0 1-1.75 1.75h-9.5a1.75 1.75 0 0 1-1.75-1.75v-2.5Zm1.75-.25a.25.25 0 0 0-.25.25v2.5c0 .138.112.25.25.25h9.5a.25.25 0 0 0 .25-.25v-2.5a.25.25 0 0 0-.25-.25h-9.5Z" fill="#5C5F62"/><path d="M5.25 12a.25.25 0 0 0-.25.25v2.5c0 .138.112.25.25.25h5a.75.75 0 0 1 0 1.5h-5a1.75 1.75 0 0 1-1.75-1.75v-2.5c0-.966.783-1.75 1.75-1.75h6.75a.75.75 0 0 1 0 1.5h-6.75Z" fill="#5C5F62"/><path d="M7 14.5a1 1 0 1 0 0-2 1 1 0 0 0 0 2Z" fill="#5C5F62"/><path fill-rule="evenodd" d="M16.878 13.839a2.257 2.257 0 0 1 0 .822l.327.19a.75.75 0 0 1-.75 1.298l-.328-.189a2.245 2.245 0 0 1-.712.412v.378a.75.75 0 0 1-1.5 0v-.378a2.248 2.248 0 0 1-.712-.412l-.328.19a.75.75 0 0 1-.75-1.3l.328-.188a2.26 2.26 0 0 1 0-.824l-.328-.189a.75.75 0 0 1 .75-1.299l.328.19c.208-.178.449-.319.712-.412v-.378a.75.75 0 0 1 1.5 0v.378c.263.093.504.234.712.412l.328-.19a.75.75 0 0 1 .75 1.3l-.327.189Zm-2.963.411c0-.133.035-.258.096-.367l.005-.008.004-.008a.75.75 0 0 1 1.289-.002l.006.01.006.01a.747.747 0 0 1 0 .73l-.006.01-.006.01a.75.75 0 0 1-1.29-.002l-.003-.008-.005-.008a.747.747 0 0 1-.096-.367Z" fill="#5C5F62"/></svg>
